assets/svg/icon_button_history.svg

<svg width="24" height="24" viewBox="0 0 24 24" fill="none" xmlns="http://www.w3.org/2000/svg">
<path d="M4.79883 10.4039C4.79883 7.38692 4.79883 5.87842 5.73609 4.94116C6.67334 4.00391 8.18184 4.00391 11.1988 4.00391H12.7988C15.8158 4.00391 17.3243 4.00391 18.2616 4.94116C19.1988 5.87842 19.1988 7.38692 19.1988 10.4039V13.6039C19.1988 16.6209 19.1988 18.1294 18.2616 19.0666C17.3243 20.0039 15.8158 20.0039 12.7988 20.0039H11.1988C8.18184 20.0039 6.67334 20.0039 5.73609 19.0666C4.79883 18.1294 4.79883 16.6209 4.79883 13.6039V10.4039Z" stroke="#0E0E0E" stroke-width="1.2"/>
<path d="M8.79883 12.0039H15.1988" stroke="#0E0E0E" stroke-width="1.2" stroke-linecap="round"/>
<path d="M8.79883 8.80469H15.1988" stroke="#0E0E0E" stroke-width="1.2" stroke-linecap="round"/>
<path d="M8.79883 15.2031H12.7988" stroke="#0E0E0E" stroke-width="1.2" stroke-linecap="round"/>
</svg>

<svg xmlns="http://www.w3.org/2000/svg" width="24" height="24" fill="none"><path stroke="#0E0E0E" stroke-width="1.2" d="M4.799 10.404c0-3.017 0-4.526.937-5.463s2.446-.937 5.463-.937h1.6c3.017 0 4.525 0 5.463.937s.937 2.446.937 5.463v3.2c0 3.017 0 4.525-.937 5.463s-2.446.937-5.463.937h-1.6c-3.017 0-4.526 0-5.463-.937S4.8 16.62 4.8 13.604z"/><path stroke="#0E0E0E" stroke-linecap="round" stroke-width="1.2" d="M8.799 12.004h6.4M8.799 8.805h6.4M8.799 15.203h4"/></svg>
